X: 276
T: 277. Herzlich lieb hab ich dich, o Herr
N: Derived from chor277.krn
C: Johann Sebastian Bach
%%abc-version 2.0
%%abcx-abcm2ps-target-version 5.9.1 (29 Sep 2008)
%%abc-creator hum2abc beta
%%abcx-conversion-date 2019/03/11 17:28:19
%%abc-edited-by Craig Stuart Sapp
%%humdrum-veritas 819293551
%%humdrum-veritas-data 2757761411
%%
%%barnumbers 0
L: 1/8
M: C
%%staves [1 2 3 4]
V: 1 clef=treble
V: 2 clef=treble
V: 3 clef=treble-8
V: 4 clef=bass
K: C
[V:1] c2 [I:setbarnb 1]| 
[V:2] G2 | 
[V:3] e2 | 
[V:4] C,2 | 
[V:1] B2A2GFE2 | 
[V:2] GFE2E2ED | 
[V:3] d2dcB2cB | 
[V:4] G,2A,2E,D,C,2 | 
[V:1] A2A2!fermata!G2c2 | 
[V:2] C2F2!fermata!E2EF | 
[V:3] ABc2!fermata!c2cd | 
[V:4] F,G, A,B,!fermata!C2A,2 | 
[V:1] B2A2GFE2 | 
[V:2] G2FED2CD | 
[V:3] edc2d2G2 | 
[V:4] E,2F,2B,,2C,B,, | 
[V:1] A2A2!fermata!G2G2 | 
[V:2] E^D E^F F!fermata!EE2 | 
[V:3] cB Ac!fermata!B2cB | 
[V:4] A,,B,, ^C,^D,!fermata!E,2=C,2 | 
[V:1] A2B2cde2 | 
[V:2] =DC=F2E2A2 | 
[V:3] A2d2cBc2 | 
[V:4] F,2E,=D,A,3G, | 
[V:1] d4!fermata!c2 :|]  
[V:2] A2GF!fermata!E2 :|]  
[V:3] c2B2!fermata!G2 :|]  
[V:4] F,D,G,2!fermata!C,2 :|]  
[V:1] c2 [I:setbarnb 7]| 
[V:2] G2 | 
[V:3] e2 | 
[V:4] CB, | 
[V:1] c2d2c2AB | 
[V:2] A2B2A2E2 | 
[V:3] ec fee3d | 
[V:4] A,3^G, A,B, CB, | 
[V:1] c3d!fermata!B2B2 | 
[V:2] E2D2!fermata!D2G2 | 
[V:3] cBA2!fermata!G2d2 | 
[V:4] A,G, ^F,D,!fermata!G,2G,=F, | 
[V:1] c2d2cB AB | 
[V:2] G2G2G2F2 | 
[V:3] e2f2e2A^G | 
[V:4] E,D, C,B,,C,2D,2 | 
[V:1] c3d!fermata!B2e2 | 
[V:2] E3^F!fermata!^G2A=G | 
[V:3] AEA2!fermata!B2A2 | 
[V:4] A,,B,, C,A,,!fermata!E,2^C,2 | 
[V:1] fed2edc2 | 
[V:2] =F2G2GFE2 | 
[V:3] d=cB2B2c2 | 
[V:4] D,2G,F,E,2A,G, | 
[V:1] c2B2!fermata!c2B2 | 
[V:2] A2G2!fermata!G2G2 | 
[V:3] d2ef!fermata!e2d2 | 
[V:4] F,D,G,2!fermata!C,2G,2 | 
[V:1] c2B2ABG2 | 
[V:2] A2AG G^F FE | 
[V:3] d2de ed Bc | 
[V:4] G,^F, G,E, C,D, E,C, | 
[V:1] GA^F2!fermata!G2e2 | 
[V:2] E2D2!fermata!D2C2 | 
[V:3] c2AB/c/!fermata!B2GA | 
[V:4] A,,2D,2!fermata!G,,2C,2 | 
[V:1] d2c2!fermata!B2e2 | 
[V:2] DE E^D!fermata!E2E=D | 
[V:3] B2A^F!fermata!^G2cB | 
[V:4] G,^G,A,2!fermata!E,2A,,2 | 
[V:1] fed2ed cB | 
[V:2] CE ^GAB2E2 | 
[V:3] Ac d=fB2c2 | 
[V:4] A,2B,A,^G,2A,=G, | 
[V:1] AdB2!fermata!c2c2 | 
[V:2] EDE2!fermata!E2c_B | 
[V:3] cA B^G!fermata!A2G2 | 
[V:4] ^F,2^G,E,!fermata!A,2E,2 | 
[V:1] c2c2d2c2 | 
[V:2] AG FED2EG | 
[V:3] c_BA2AG Ge | 
[V:4] =F,G,A,2B,,2E,C, | 
[V:1] c2=B2!fermata!c2 |]  
[V:2] G3G!fermata!G2 |]  
[V:3] dcd2!fermata!e2 |]  
[V:4] G,2G,,2!fermata!C,2 |]  



